packages/blockchain-info-components/src/Images/img/banks/bank-logo-venmo.svg

<svg fill="none" height="32" viewBox="0 0 32 32" width="32" xmlns="http://www.w3.org/2000/svg"><path d="m26.2375 4c.8724 1.4408 1.2657 2.92483 1.2657 4.79947 0 5.97913-5.1041 13.74643-9.2466 19.20053h-9.46187l-3.79473-22.69089 8.2849-.78659 2.0063 16.14608c1.8746-3.0541 4.188-7.8536 4.188-11.12578 0-1.79109-.3068-3.01106-.7863-4.01557z" fill="#3b8af7"/></svg>

<svg width="32" height="32" viewBox="0 0 32 32" fill="none" xmlns="http://www.w3.org/2000/svg">
<path d="M26.2375 4C27.1099 5.4408 27.5032 6.92483 27.5032 8.79947C27.5032 14.7786 22.3991 22.5459 18.2566 28H8.79473L5 5.30911L13.2849 4.52252L15.2912 20.6686C17.1658 17.6145 19.4792 12.815 19.4792 9.54282C19.4792 7.75173 19.1724 6.53176 18.6929 5.52725L26.2375 4V4Z" fill="#3B8AF7"/>
</svg>
